X:162
T:Cullen House
R:Reel
B:The Athole Collection
M:C|
L:1/8
K:D
B|A2 AF AFdB|A2 AF GEEB|A2 AF AFdA|BGAG FDD:|
f|ddfd adfd|ddfd eBBe|ddfd adfd|BdAd FDDf|ddfd adfd|
ddfd eBBg|fdec dBAB|dfeg fdd||

